X: 262
M: 6/8
L: 1/8
K: G
d2c |\
|: g2"2.F."d |\
|: "1.F."G2A |\
[| g2"1.F."d |\
g2d cBA | B2G g2d | g2d cBA | G3 g2d |\
g2d cBA | B2G g2d | g2d cBA | HG3 |]

